X:57
T:Bonny Sailor THO4.057, The
M:6/8
L:1/8
Z:vmp. Peter Dunk 2010/11.from a transcription by Fynn Titford-Mock 2007
B:Thompson's Compleat Collection of 200 Favourite Country Dances Volume IV.
Q:3/8=110
K:D
A|d2 e f2 e|d3 A2 f|fdf agf|efd e2 A|d2 e f2 e|d3 A2 f|fdf agf|e3-e2:|
e|e2 f g2 a|f3 e2 f|dgf efd|ede e2 d|\
e2 f g2 a|f2 e gfe|agf ede| d3-d2:|
